X: 25922
T: Maudabawn Chapel
R: reel
M: 4/4
K: Gmajor
|:G2 FG EDB,A,|G,2 (3A,B,D EDB,A,|G,A,B,D GABd|gabg ea (3aaa|
gbag efge|dged (3B^cd ef|g2 fa gedB|1 AcBA [Gd]2 z F:|2 AcBA GE (3EED||
|:E2 BE dEBE|(3EEE EB AFDF|E (3EEE F G (3GGG B|A (3AAA F DFAD|
EB (3BBA B2 EB|BAGA B^cde|fd af gfe^c|1 dBAF BE (3EED:|2 dBAF GDEF||

